!!!COM: Igor (Fyodorovich) Stravinsky
!!!OTL: [T370_Str-15/5/[11]1-[13]1]
**kern	**dynam	**kern	**dynam	**kern	**dynam	**kern	**dynam	**kern	**dynam	**kern	**dynam	**kern	**dynam
*grp:A	*grp:A	*grp:A	*grp:A	*grp:A	*grp:A	*grp:B	*grp:B	*grp:B	*grp:B	*grp:A	*grp:A	*grp:B	*grp:B
*part7	*part7	*part6	*part6	*part5	*part5	*part4	*part4	*part3	*part3	*part2	*	*part1	*part1
*staff7	*	*staff6	*	*staff5	*	*staff4	*	*staff3	*	*staff2	*	*staff1	*
*I"Contrabass	*	*I"Violin	*	*I"Tambourine, Side Drum (snares off), Bass Drum	*	*I"Trombone	*	*I"Trumpet in A	*	*I"Bassoon	*	*I"Clarinet in A	*
*I'Cb.	*	*I'Vln.	*	*I'Tamb, SD, BD	*	*I'Tbn.	*	*I'A Tpt.	*	*I'Bsn.	*	*I'A Cl.	*
*clefF4	*	*clefG2	*	*clefX	*	*clefF4	*	*clefG2	*	*clefF4	*	*clefG2	*
*ITrd7c12	*	*	*	*	*	*	*	*ITrd2c3	*	*	*	*ITrd2c3	*
*k[]	*	*k[]	*	*k[]	*	*k[]	*	*k[f#c#g#]	*	*k[]	*	*k[f#c#g#]	*
*	*	*	*	*C:	*	*	*	*	*	*	*	*	*
*M3/8	*	*M3/8	*	*M3/8	*	*M3/8	*	*M3/8	*	*M3/8	*	*M3/8	*
!!LO:REH:t=11
=71	=71	=71	=71	=71	=71	=71	=71	=71	=71	=71	=71	=71	=71
!	!	!LO:TX:b:i:t=[sempre stacc.]	!	!	!	!	!	!	!	!	!LO:DY:ed=brack	!LO:TX:t=[[quarter]=112]	!
!	!	!	!	!LO:TX:t=P:problem:Cross-Measure beaming still needs to be implemented.	!	!	!	!	!	!	!	!	!
8GG'^L	ff	8r	.	8Re\L	f	8ryy	.	8ryy	.	8GGL	ff	8ryy	.
!	!	!LO:TX:t=P:problem:cross-Measure beaming still needs to be implemented.	!	!	!	!	!	!LO:TX:a:t=Solo	!	!	!	!	!
8r	.	8GL 8d	ff	8Rb\	.	4ryy	4ryy	4ryy	4ryy	8r	.	4ryy	4ryy
8DD'J 8E	.	8G 8d	.	8Re\	.	.	.	.	.	8DDJ	.	.	.
=72	=72	=72	=72	=72	=72	=72	=72	=72	=72	=72	=72	=72	=72
*M3/4	*	*M3/4	*	*M3/4	*	*M3/4	*	*M3/4	*	*M3/4	*	*M3/4	*
8r	.	8GJ 8d	.	8Rff\	.	4ryy	.	4ryy	.	8r	.	4ryy	.
8GG'L	.	8r	.	8Re\	.	.	.	.	.	8GGL	.	.	.
8r	.	8GL 8d	.	8r	.	4ryy	.	4ryy	.	8r	.	4ryy	.
8DD'J 8E	.	8G 8d	.	8Rb\J	.	.	.	.	.	8DD	.	.	.
8r	.	8GJ 8d	.	8r	.	8ryy	.	8ryy	.	8r	.	8ryy	.
!LO:TX:t=P:problem:Cross-Measure beaming still needs to be implemented.	!	!	!	!	!	!	!	!	!	!	!	!	!
8GG'L	.	8r	.	8Re\L	.	8ryy	.	8ryy	.	8GGJ	.	8ryy	.
=73	=73	=73	=73	=73	=73	=73	=73	=73	=73	=73	=73	=73	=73
*M3/8	*	*M3/8	*	*M3/8	*	*M3/8	*	*M3/8	*	*M3/8	*	*M3/8	*
8r	.	8GL 8d	.	8Rb\	.	8ryy	.	8ryy	.	8r	.	8ryy	.
!LO:TX:b:i:t=sempre stacc.	!	!	!	!	!	!	!	!	!	!	!	!	!
8DDJ 8E	.	8G 8d	.	8Re\	.	8ryy	.	8ryy	.	8DD	.	8ryy	.
8r	.	8GJ 8d	.	8Rff\	.	8ryy	.	8ryy	.	8r	.	8ryy	.
=74	=74	=74	=74	=74	=74	=74	=74	=74	=74	=74	=74	=74	=74
*M3/4	*	*M3/4	*	*M3/4	*	*M3/4	*	*M3/4	*	*M3/4	*	*M3/4	*
8GGL	.	8r	.	8Re\	.	4ryy	.	4ryy	.	8GGL	.	4ryy	.
8r	.	8GL 8d	.	8Rb\J	.	.	.	.	.	8r	.	.	.
8DDJ 8E	.	8G 8d	.	8r	.	4ryy	.	4ryy	.	8DD	.	4ryy	.
8r	.	8GJ 8d	.	8Re\L	.	.	.	.	.	8r	.	.	.
8GGL	.	8r	.	8Rb\	.	8ryy	.	8ryy	.	8GGJ	.	8ryy	.
8r	.	8GL 8d	.	8Re\	.	8ryy	.	8ryy	.	8r	.	8ryy	.
!!pagebreak:original
=75	=75	=75	=75	=75	=75	=75	=75	=75	=75	=75	=75	=75	=75
*M3/8	*	*M3/8	*	*M3/8	*	*M3/8	*	*M3/8	*	*M3/8	*	*M3/8	*
8DDJ 8E	.	8G 8d	.	8Rff\	.	8ryy	.	8ryy	.	8DDL	.	8ryy	.
8r	.	8GJ 8d	.	8Re\	.	8ryy	.	8ryy	.	8r	.	8ryy	.
8GGL	.	8r	.	8Rb\J	.	8ryy	.	8ryy	.	8GGJ	.	8ryy	.
=76	=76	=76	=76	=76	=76	=76	=76	=76	=76	=76	=76	=76	=76
*M3/4	*	*M3/4	*	*M3/4	*	*M3/4	*	*M3/4	*	*M3/4	*	*M3/4	*
8r	.	8GL 8d	.	8r	.	4ryy	.	4ryy	.	8r	.	4ryy	.
8DDJ 8E	.	8G 8d	.	8Re\L	.	.	.	.	.	8DDL	.	.	.
8r	.	8GJ 8d	.	8Rb\	.	8ryy	.	8ryy	.	8r	.	8ryy	.
8GGL	.	8r	.	8Re\	.	8ryy	.	8ryy	.	8GG	.	8ryy	.
8r	.	8GL 8d	.	8Rff\	.	8ryy	.	8ryy	.	8r	.	8ryy	.
8DDJ 8E	.	8G 8d	.	8Re\	.	8ryy	.	8ryy	.	8DDJ	.	8ryy	.
=77	=77	=77	=77	=77	=77	=77	=77	=77	=77	=77	=77	=77	=77
*M3/8	*	*M3/8	*	*M3/8	*	*M3/8	*	*M3/8	*	*M3/8	*	*M3/8	*
8r	.	8GJ 8d	.	8r	.	8ryy	.	8ryy	.	8r	.	8ryy	.
8GGL	.	8r	.	8Rb\J	.	8ryy	.	8ryy	.	8GG	.	8ryy	.
8r	.	8GL 8d	.	8r	.	8ryy	.	8ryy	.	8r	.	8ryy	.
!!LO:REH:t=12
=78	=78	=78	=78	=78	=78	=78	=78	=78	=78	=78	=78	=78	=78
*M2/4	*	*M2/4	*	*M2/4	*	*M2/4	*	*M2/4	*	*M2/4	*	*M2/4	*
8DDJ 8E	.	8G 8d	.	8Re\L	.	4ryy	.	4ryy	.	8DDL	.	4ryy	.
8r	.	8GJ 8d	.	8Rb\	.	.	.	.	.	8r	.	.	.
8GGL	.	8r	.	8Re\	.	8ryy	.	8ryy	.	8GGJ	.	8ryy	.
8r	.	8GL 8d	.	8Rff\	.	8ryy	.	8ryy	.	8r	.	8ryy	.
=79	=79	=79	=79	=79	=79	=79	=79	=79	=79	=79	=79	=79	=79
*M3/8	*	*M3/8	*	*M3/8	*	*M3/8	*	*M3/8	*	*M3/8	*	*M3/8	*
8DDJ 8E	.	8G 8d	.	8Re\	.	8ryy	.	8ryy	.	8DDL	.	8ryy	.
8r	.	8GJ 8d	.	8r	.	8ryy	.	8ryy	.	8r	.	8ryy	.
8GGL	.	8r	.	8Rb\J	.	8ryy	.	8ryy	.	8GGJ	.	8ryy	.
!!pagebreak:original
=80	=80	=80	=80	=80	=80	=80	=80	=80	=80	=80	=80	=80	=80
*M2/4	*	*M2/4	*	*M2/4	*	*M2/4	*	*M2/4	*	*M2/4	*	*M2/4	*
8r	.	8GL 8d	.	8r	.	4ryy	.	4ryy	.	8r	.	4ryy	.
8DDJ 8E	.	8G 8d	.	8Re\L	.	.	.	.	.	8DDL	.	.	.
8r	.	8GJ 8d	.	8Rb\	.	4ryy	.	4ryy	.	8r	.	4ryy	.
8GGL	.	8r	.	8Re\	.	.	.	.	.	8GGJ	.	.	.
=81	=81	=81	=81	=81	=81	=81	=81	=81	=81	=81	=81	=81	=81
*M3/8	*	*M3/8	*	*M3/8	*	*M3/8	*	*M3/8	*	*M3/8	*	*M3/8	*
8r	.	8GL 8d	.	8Rff\	.	8ryy	.	8ryy	.	8r	.	8ryy	.
8DDJ 8E	.	8G 8d	.	8Re\	.	8ryy	.	8ryy	.	8DD	.	8ryy	.
8r	.	8GJ 8d	.	8Rb\J	.	8ryy	.	8ryy	.	8r	.	8ryy	.
=82	=82	=82	=82	=82	=82	=82	=82	=82	=82	=82	=82	=82	=82
*M2/4	*	*M2/4	*	*M2/4	*	*M2/4	*	*M2/4	*	*M2/4	*	*M2/4	*
8GGL	.	8r	.	8r	.	4ryy	.	4ryy	4ryy	8GGL	.	4ryy	4ryy
8r	.	8GL 8d	.	8Re\L	.	.	.	.	.	8r	.	.	.
8DDJ 8E	.	8G 8d	.	8Rb\	.	4ryy	.	4ryy	.	8DDJ	.	4ryy	.
8r	.	8GJ 8d	.	8Re\	.	.	.	.	.	8r	.	.	.
=83	=83	=83	=83	=83	=83	=83	=83	=83	=83	=83	=83	=83	=83
8GGL	.	8r	.	8Rff\	.	4ryy	.	4ryy	.	8GGL	.	4ryy	.
8r	.	8GL 8d	.	8Re\	.	.	.	.	.	8r	.	.	.
8DDJ 8E	.	8G 8d	.	8Rb\J	.	4ryy	.	4ryy	4ryy	8DDJ	.	4ryy	4ryy
8r	.	8GJ 8d	.	8r	.	.	.	.	.	8r	.	.	.
!!LO:REH:t=13
=84	=84	=84	=84	=84	=84	=84	=84	=84	=84	=84	=84	=84	=84
!	!	!	!LO:DY:t=%s sub.	!	!	!	!	!	!	!LO:TX:a:t=Solo	!LO:DY:t=%s sub.	!	!
8DDL 8E-X	p	8G'L 8f	p	2r	.	2ryy	.	2ryy	.	8.cL	pp	2ryy	.
8r	.	8r	.	.	.	.	.	.	.	.	.	.	.
.	.	.	.	.	.	.	.	.	.	16B-XJk	.	.	.
8DDJ 8F	.	8G'J 8f	.	.	.	.	.	.	.	4c	.	.	.
8r	.	8r	.	.	.	.	.	.	.	.	.	.	.
=	=	=	=	=	=	=	=	=	=	=	=	=	=
*-	*-	*-	*-	*-	*-	*-	*-	*-	*-	*-	*-	*-	*-
!!!system-decoration: [(s1,s2)][(s3,s4)](s5)[(s6,s7)]
!!!RDF**kern: i = editorial accidental
!!!RDF**kern: j = editorial accidental, bracket
!!!RDF**kern: Z = editorial accidental, parentheses
!!!EED: Rafael Laurindo
!!!EEV: 2021/07/21
!!!EED2: Daniel Wright
!!!EEV2: 2022/02/03
